X:59
T:Hungarian Tune. or Dance.
T:John Malchair's Third Collection of Tunes
%%VWML:Malchair-3619-p59
F:https://www.vwml.org/record/Malchair/3619/p59
F:www.vwml.org/topics/historic-dance-and-tune-books/Malchair
Z:Eric Conrad Jan 2020
M:2/4
L:1/16
Q:"moderato."
K:G % one sharp
e^def {a}g2(gf) | e^def {a}g2(gf) | {f}e2eB {B}c2cA | B2{^a}b2 B2{a}b2 |
e^def {a}g2gf | e^def {a}g2gf | {f}e2eB {B}c2cA | B2{^a}b2 B4 :|
|: cBcd {f}e2ed | cded {d}c2cB | A^GAc {c}B2B^G | A2{^g}a2A2{g}a2 |
cBcd {f}e2ed | cded {d}c2cB | A^GAc {c}B2B^G | A2{^g}a2 A4 :|
W:% Using this W: as a space between tunes
T:Hungarian Dance
T:John Malchair's Third Collection of Tunes
F:https://www.vwml.org/record/Malchair/3619/p59
F:www.vwml.org/topics/historic-dance-and-tune-books/Malchair
% Z:Eric Conrad Jan 2020
M:2/4
L:1/16
K:C % no sharps or flats
efed {d}c2cB | {B}c4 c4 | dcde {g}f2fg | {f}e4 e4 |
efed {d}c2cB | cdcB {B}A2A^G | A^GAc {c}B2BG | A2{^g}a2 A4 :|
|: .G2 (G4 AB) | {B}c4 c4 | .d2 (d4 ef) | {f}e4 e4 |
efed {d}c2cB | cdcB {B}A2A^G | A^GAc {c}B2BG | A2{^g}a2 A4 :|



